Setup/v9/Assets/Themes/Kobe - Light/ColorPicker.svg

<svg width="20" height="20" viewBox="0 0 20 20" fill="none" xmlns="http://www.w3.org/2000/svg">
<path d="M12.2464 4.84763L9.54439 8.70656L7.57076 11.4311C7.42107 11.6378 7.35604 11.8938 7.38898 12.1468L7.47042 12.7724C7.48991 12.9222 7.47523 13.0745 7.42747 13.2178L7.07805 14.266C7.02681 14.4197 7.01369 14.5836 7.03982 14.7435L7.05853 14.858C7.09681 15.0923 7.29921 15.2643 7.53659 15.2643V15.2643C7.8341 15.2643 8.11511 15.1276 8.29878 14.8936L8.7501 14.3185C8.91041 14.1142 9.14389 13.9803 9.40116 13.9451L10.0651 13.8543C10.3423 13.8163 10.591 13.6639 10.7507 13.4341L12.5656 10.822L15.2677 6.96311" stroke="black" stroke-linejoin="round"/>
<circle cx="5.5" cy="17.5" r="1" fill="black" fill-opacity="0.15" stroke="black"/>
<path d="M16.971 1.41338C15.7009 0.5 14.5448 1.52388 13.4601 3.03234L12.3377 4.59309L15.4315 6.8178L16.5538 5.25705C17.6385 3.74858 18.2412 2.32676 16.971 1.41338Z" fill="black" fill-opacity="0.15" stroke="black" stroke-linejoin="round"/>
<path d="M11.5 4L16.3713 7.50295" stroke="black" stroke-linecap="round"/>
<path d="M2 19L12 19" stroke="black" stroke-linecap="round"/>
</svg>

<svg xmlns="http://www.w3.org/2000/svg" width="20" height="20" fill="none"><path stroke="#000" stroke-linejoin="round" d="M12.246 4.848 9.544 8.707 7.571 11.43a1 1 0 0 0-.182.716l.081.625a1 1 0 0 1-.043.446l-.349 1.048a1 1 0 0 0-.038.477l.019.115c.038.234.24.406.478.406a.969.969 0 0 0 .762-.37l.451-.575a1 1 0 0 1 .651-.374l.664-.09a1 1 0 0 0 .686-.42l1.815-2.613 2.702-3.859"/><circle cx="5.5" cy="17.5" r="1" fill="#000" fill-opacity=".15" stroke="#000"/><path fill="#000" fill-opacity=".15" stroke="#000" stroke-linejoin="round" d="M16.971 1.413c-1.27-.913-2.426.11-3.51 1.62l-1.123 1.56 3.094 2.225 1.122-1.561c1.085-1.508 1.687-2.93.417-3.844Z"/><path stroke="#000" stroke-linecap="round" d="m11.5 4 4.871 3.503M2 19h10"/></svg>
